X:1
T:John Kanaka
C:Trad. anglais, paroles franaises de Djiboudjep, abc file by Bernard Loffet
L:1/8
Q:324
M:2/2
K:G
z6[d2G,2]|[d2G,2][BG,]dG,d[BG,]A|[G2G,2][AD,]BG,2G,2|[G2G,2]G,A[BG,]B[BG,]B|[A2D,2][A2D,2][G2G,2][d2G,2]|[d2G,2][BG,]dG,z[BG,]A|[G2G,2][AG,]BG,2G,2|[G2G,2]G,A[BG,]B[BG,]B| \
[A2D,2][A2D,2][G2G,2]G,2|[d2G,2][B2G,2][d2G,2][g2G,2]|[e2C,2][c2C,2][d2G,2]G,2|[G2G,2]G,A[BG,]B[BG,]B|[A2D,2][A2D,2][G2G,2]G,2|[d2G,2][B2G,2][d2G,2][g2G,2]| \
[e2C,2][c2C,2][d2G,2]G,2|[G2G,2]G,A[BG,]B[BG,]B|[A2D,2][A2D,2][G4G,4]| \
K:C
Z:Created with TablEdit http://www.tabledit.com/ by Bernard Loffet
